icons/document.svg

<?xml version="1.0" encoding="utf-8"?>
<svg xmlns="http://www.w3.org/2000/svg" viewBox="0 0 16 16" fill="#ffffff"><path d="M 4.5 2 C 3.675781 2 3 2.675781 3 3.5 L 3 12.5 C 3 13.324219 3.675781 14 4.5 14 L 11.5 14 C 12.324219 14 13 13.324219 13 12.5 L 13 5.292969 L 9.707031 2 Z M 4.5 3 L 9 3 L 9 6 L 12 6 L 12 12.5 C 12 12.78125 11.78125 13 11.5 13 L 4.5 13 C 4.21875 13 4 12.78125 4 12.5 L 4 3.5 C 4 3.21875 4.21875 3 4.5 3 Z M 10 3.707031 L 11.292969 5 L 10 5 Z" fill="#ffffff"/></svg>

<?xml version="1.0" encoding="utf-8"?>
<!-- Generator: Adobe Illustrator 25.2.3, SVG Export Plug-In . SVG Version: 6.00 Build 0)  -->
<svg version="1.1" id="Layer_1" xmlns="http://www.w3.org/2000/svg" xmlns:xlink="http://www.w3.org/1999/xlink" x="0px" y="0px"
	 viewBox="0 0 16 16" style="enable-background:new 0 0 16 16;" xml:space="preserve">
<style type="text/css">
	.st0{fill:#111111;}
</style>
<path class="st0" d="M4.5,2C3.7,2,3,2.7,3,3.5v9C3,13.3,3.7,14,4.5,14h7c0.8,0,1.5-0.7,1.5-1.5V5.3L9.7,2H4.5z M4.5,3H9v3h3v6.5
	c0,0.3-0.2,0.5-0.5,0.5h-7C4.2,13,4,12.8,4,12.5v-9C4,3.2,4.2,3,4.5,3z M10,3.7L11.3,5H10V3.7z"/>
</svg>
